X:1
T:title
M:4/4
Q:120
L:1/8
R:Reel
K:C
 ^A _f'3b4 | g4 _b'4 |  _f'3 _g3 _E2 |  _f3 _A2 _C2 _F | a'4f'2a' _F |  _e'4a ^fA _b' |  ^a' ^B4 _g3 |  _D2 _d3 ^F _g' ^d' | 